img/subtract-16.svg

<svg fill="none" height="25" viewBox="0 0 23 25" width="23" xmlns="http://www.w3.org/2000/svg"><path clip-rule="evenodd" d="m16.5358 18.7926c3.0071-.359 5.6254-2.2119 5.9545-3.9048.5185-2.667.4757-6.50822.4757-6.50822 0-5.20633-3.4111-6.73239-3.4111-6.73239-1.7199-.789921-4.6732-1.122105-7.7415-1.14719h-.0754c-3.06823.025085-6.01962.357269-7.73963 1.14719 0 0-3.411196 1.52606-3.411196 6.73239 0 .31563-.001631.64761-.00333.99321-.004716.95981-.009949 2.02461.017812 3.13611.123874 5.0915.933454 10.1095 5.640924 11.3555 2.17051.5745 4.03402.6947 5.53492.6122 2.7217-.1509 4.2496-.9713 4.2496-.9713l-.0898-1.9748s-1.945.6133-4.1293.5386c-2.16418-.0742-4.44887-.2334-4.7989-2.8905-.03232-.2334-.04849-.4829-.04849-.745 0 0 2.12448.5192 4.81689.6426 1.6463.0755 3.1902-.0965 4.7583-.2836zm2.4066-3.7053v-6.30396c0-1.28839-.328-2.31223-.9868-3.0697-.6797-.75747-1.5695-1.14577-2.6741-1.14577-1.2781 0-2.246.49123-2.8858 1.47382l-.6222 1.04284-.6221-1.04284c-.6399-.98259-1.60776-1.47382-2.88581-1.47382-1.10465 0-1.99452.3883-2.67402 1.14577-.65894.75747-.98699 1.78131-.98699 3.0697v6.30396h2.49753v-6.11867c0-1.28981.54269-1.94448 1.62821-1.94448 1.2002 0 1.80188.7766 1.80188 2.31223v3.34912h2.4828v-3.34912c0-1.53563.6015-2.31223 1.8017-2.31223 1.0855 0 1.6282.65467 1.6282 1.94448v6.11867z" fill="#000" fill-rule="evenodd"/></svg>

<svg width="23" height="25" viewBox="0 0 23 25" fill="none" xmlns="http://www.w3.org/2000/svg">
<path fill-rule="evenodd" clip-rule="evenodd" d="M16.5358 18.7926C19.5429 18.4336 22.1612 16.5807 22.4903 14.8878C23.0088 12.2208 22.966 8.37958 22.966 8.37958C22.966 3.17325 19.5549 1.64719 19.5549 1.64719C17.835 0.857269 14.8817 0.525085 11.8134 0.5H11.738C8.66977 0.525085 5.71838 0.857269 3.99837 1.64719C3.99837 1.64719 0.587174 3.17325 0.587174 8.37958C0.587174 8.69521 0.585543 9.02719 0.583844 9.37279C0.579128 10.3326 0.573895 11.3974 0.601656 12.5089C0.72553 17.6004 1.53511 22.6184 6.24258 23.8644C8.41309 24.4389 10.2766 24.5591 11.7775 24.4766C14.4992 24.3257 16.0271 23.5053 16.0271 23.5053L15.9373 21.5305C15.9373 21.5305 13.9923 22.1438 11.808 22.0691C9.64382 21.9949 7.35913 21.8357 7.0091 19.1786C6.97678 18.9452 6.96061 18.6957 6.96061 18.4336C6.96061 18.4336 9.08509 18.9528 11.7775 19.0762C13.4238 19.1517 14.9677 18.9797 16.5358 18.7926ZM18.9424 15.0873V8.78334C18.9424 7.49495 18.6144 6.47111 17.9556 5.71364C17.2759 4.95617 16.3861 4.56787 15.2815 4.56787C14.0034 4.56787 13.0355 5.0591 12.3957 6.04169L11.7735 7.08453L11.1514 6.04169C10.5115 5.0591 9.54364 4.56787 8.26559 4.56787C7.16094 4.56787 6.27107 4.95617 5.59157 5.71364C4.93263 6.47111 4.60458 7.49495 4.60458 8.78334V15.0873H7.10211V8.96863C7.10211 7.67882 7.6448 7.02415 8.73032 7.02415C9.93052 7.02415 10.5322 7.80075 10.5322 9.33638V12.6855H13.015V9.33638C13.015 7.80075 13.6165 7.02415 14.8167 7.02415C15.9022 7.02415 16.4449 7.67882 16.4449 8.96863V15.0873H18.9424Z" fill="black"/>
</svg>
